tenants/story/icons/channel_instagram.svg

<svg fill="none" height="32" viewBox="0 0 32 32" width="32" xmlns="http://www.w3.org/2000/svg" xmlns:xlink="http://www.w3.org/1999/xlink"><clipPath id="a"><path d="m0 0h32v32h-32z"/></clipPath><g clip-path="url(#a)"><circle cx="16" cy="16" fill="#d9222a" r="16"/><path d="m16.0018 12.1957c-2.2702 0-4.1013 1.8315-4.1013 4.1022 0 2.2706 1.8311 4.1021 4.1013 4.1021 2.2701 0 4.1013-1.8315 4.1013-4.1021 0-2.2707-1.8312-4.1022-4.1013-4.1022zm0 6.7691c-1.4671 0-2.6664-1.196-2.6664-2.6669 0-1.471 1.1958-2.667 2.6664-2.667s2.6664 1.196 2.6664 2.667c0 1.4709-1.1994 2.6669-2.6664 2.6669zm5.2256-6.9369c0 .5319-.4283.9568-.9566.9568-.5318 0-.9566-.4285-.9566-.9568 0-.5284.4284-.9569.9566-.9569.5283 0 .9566.4285.9566.9569zm2.7164.9711c-.0607-1.2818-.3534-2.4171-1.2922-3.35249-.9351-.9354-2.0702-1.22816-3.3517-1.29243-1.3206-.07497-5.2792-.07497-6.5998 0-1.2779.0607-2.413.35346-3.35175 1.28886-.93876.93536-1.22788 2.07076-1.29213 3.35246-.07496 1.321-.07496 5.2804 0 6.6013.06068 1.2818.35337 2.4171 1.29213 3.3525.93875.9354 2.07025 1.2282 3.35175 1.2924 1.3206.075 5.2792.075 6.5998 0 1.2815-.0607 2.4166-.3534 3.3517-1.2924.9352-.9354 1.2279-2.0707 1.2922-3.3525.0749-1.3209.0749-5.2768 0-6.5977zm-1.7062 8.0151c-.2784.6998-.8174 1.2389-1.5206 1.5209-1.053.4178-3.5516.3214-4.7152.3214-1.1637 0-3.6658.0928-4.7152-.3214-.6997-.2784-1.2386-.8175-1.52062-1.5209-.41763-1.0532-.32125-3.5524-.32125-4.7162 0-1.1639-.09281-3.6667.32125-4.7163.27842-.6998.81742-1.2389 1.52062-1.5209 1.0529-.41776 3.5515-.32137 4.7152-.32137 1.1636 0 3.6658-.09282 4.7152.32137.6996.2784 1.2386.8175 1.5206 1.5209.4176 1.0532.3212 3.5524.3212 4.7163 0 1.1638.0964 3.6666-.3212 4.7162z" fill="#fff"/></g></svg>

<svg width="32" height="32" viewBox="0 0 32 32" fill="none" xmlns="http://www.w3.org/2000/svg">
<g clip-path="url(#clip0_2369_25837)">
<circle cx="16" cy="16" r="16" fill="#D9222A"/>
<path d="M16.0018 12.1957C13.7316 12.1957 11.9005 14.0272 11.9005 16.2979C11.9005 18.5685 13.7316 20.4 16.0018 20.4C18.2719 20.4 20.1031 18.5685 20.1031 16.2979C20.1031 14.0272 18.2719 12.1957 16.0018 12.1957ZM16.0018 18.9648C14.5347 18.9648 13.3354 17.7688 13.3354 16.2979C13.3354 14.8269 14.5312 13.6309 16.0018 13.6309C17.4724 13.6309 18.6682 14.8269 18.6682 16.2979C18.6682 17.7688 17.4688 18.9648 16.0018 18.9648V18.9648ZM21.2274 12.0279C21.2274 12.5598 20.7991 12.9847 20.2708 12.9847C19.739 12.9847 19.3142 12.5562 19.3142 12.0279C19.3142 11.4995 19.7426 11.071 20.2708 11.071C20.7991 11.071 21.2274 11.4995 21.2274 12.0279ZM23.9438 12.999C23.8831 11.7172 23.5904 10.5819 22.6516 9.64651C21.7165 8.71111 20.5814 8.41835 19.2999 8.35408C17.9793 8.27911 14.0207 8.27911 12.7001 8.35408C11.4222 8.41478 10.2871 8.70754 9.34835 9.64294C8.40959 10.5783 8.12047 11.7137 8.05622 12.9954C7.98126 14.3164 7.98126 18.2758 8.05622 19.5967C8.1169 20.8785 8.40959 22.0138 9.34835 22.9492C10.2871 23.8846 11.4186 24.1774 12.7001 24.2416C14.0207 24.3166 17.9793 24.3166 19.2999 24.2416C20.5814 24.1809 21.7165 23.8882 22.6516 22.9492C23.5868 22.0138 23.8795 20.8785 23.9438 19.5967C24.0187 18.2758 24.0187 14.3199 23.9438 12.999V12.999ZM22.2376 21.0141C21.9592 21.7139 21.4202 22.253 20.717 22.535C19.664 22.9528 17.1654 22.8564 16.0018 22.8564C14.8381 22.8564 12.336 22.9492 11.2866 22.535C10.5869 22.2566 10.048 21.7175 9.76598 21.0141C9.34835 19.9609 9.44473 17.4617 9.44473 16.2979C9.44473 15.134 9.35192 12.6312 9.76598 11.5816C10.0444 10.8818 10.5834 10.3427 11.2866 10.0607C12.3395 9.64294 14.8381 9.73933 16.0018 9.73933C17.1654 9.73933 19.6676 9.64651 20.717 10.0607C21.4166 10.3391 21.9556 10.8782 22.2376 11.5816C22.6552 12.6348 22.5588 15.134 22.5588 16.2979C22.5588 17.4617 22.6552 19.9645 22.2376 21.0141Z" fill="white"/>
</g>
<defs>
<clipPath id="clip0_2369_25837">
<rect width="32" height="32" fill="white"/>
</clipPath>
</defs>
</svg>
